X: 120
T: No_78_Funeral_Song_(b).krn
N: Derived from No_78_Funeral_Song_(b).krn
%%abc-version 2.0
%%abcx-abcm2ps-target-version 5.9.1 (29 Sep 2008)
%%abc-creator hum2abc beta
%%abcx-conversion-date 2019/03/15 08:35:45
%%humdrum-veritas 3899532543
%%humdrum-veritas-data 1884017898
%%linebreak <none>
%%barnumbers 0
L: 1/8
M: 3/4
K: E clef=bass
[K:clef=bass][M:3/4]z4z z/ C/ ]|:  
B,2B,2(3B,CC ||  
[M:2/4]B,2B,B,/B,/ | 
B,2(3B,A,G, | 
F,2F, z/ A,/ ||  
[M:3/4]A,2A,2(3A,B,B, ||  
[M:2/4]A,2A,/ z/ B,/B,/ | 
B,2(3B,A,G, | 
F,2F,3/E,/ ||  
[M:3/4]E,2E,2E,/ z/ F,/F,/ | 
[M:2/4]E,2E, (3E,/F,/F,/ [I:setbarnb 12]| 
E,2(3E,D,C, | 
B,,2B,, z/ F,/ ||  
[M:3/4]E,2E,2(3:2:4E,/ z/ F,F, | 
E,2E,2(3:2:4E,/ z/ G,F, | 
[M:2/4]E,2(3E,D,C, [I:setbarnb 17]| 
B,,2B,, z/ C,/ ||  
[M:3/4]C,2C,2(3C,C,C, ||  
[M:2/4]B,,2B,,2 | 
B,,2z z/ C/ :|]  
B,,2z2 |]  



